;FLAVOR:Marlin
;TIME:625
;Filament used: 1.0671m
;Layer height: 0.3
;MINX:-58.2
;MINY:-5.95
;MINZ:0.3
;MAXX:58.2
;MAXY:5.95
;MAXZ:5.7
;Generated with Cura_SteamEngine 4.5.0
M140 S60
M105
M190 S60
M104 S220
M105
M109 S220
M82 ;absolute extrusion mode
G21        ;metric values
G90        ;absolute positioning
M107       ;start with the fan off
G28   ;move to endstops
G92 E0                  ;zero the extruded length
G1 F200 E3              ;extrude 3mm of feed stock
G92 E0                  ;zero the extruded length again
G1 F120
;Put printing message on LCD screen
M117 Printing...
G92 E0
G92 E0
G1 F1500 E-6.5
;LAYER_COUNT:19
;LAYER:0
M107
G0 F3600 X-54.334 Y5.95 Z0.3
;TYPE:SKIRT
G1 F1500 E0
G1 F1800 X-55.032 Y5.941 E0.03483
G1 X-55.536 Y5.894 E0.06008
G1 X-56.026 Y5.769 E0.08531
G1 X-56.49 Y5.568 E0.11054
G1 X-56.916 Y5.297 E0.13573
G1 X-57.295 Y4.962 E0.16096
G1 X-57.616 Y4.571 E0.1862
G1 X-57.871 Y4.135 E0.2114
G1 X-58.055 Y3.664 E0.23663
G1 X-58.162 Y3.17 E0.26185
G1 X-58.199 Y2.494 E0.29562
G1 X-58.2 Y-2.119 E0.52576
G1 X-58.191 Y-2.784 E0.55895
G1 X-58.144 Y-3.288 E0.5842
G1 X-58.018 Y-3.777 E0.60939
G1 X-57.817 Y-4.241 E0.63462
G1 X-57.546 Y-4.668 E0.65985
G1 X-57.211 Y-5.046 E0.68505
G1 X-56.82 Y-5.367 E0.71029
G1 X-56.383 Y-5.622 E0.73553
G1 X-55.912 Y-5.806 E0.76076
G1 X-55.418 Y-5.912 E0.78597
G1 X-54.76 Y-5.949 E0.81884
G1 X54.339 Y-5.95 E6.26182
G1 X55.037 Y-5.94 E6.29664
G1 X55.54 Y-5.893 E6.32185
G1 X56.03 Y-5.767 E6.34709
G1 X56.494 Y-5.565 E6.37234
G1 X56.92 Y-5.293 E6.39755
G1 X57.298 Y-4.958 E6.42275
G1 X57.618 Y-4.567 E6.44796
G1 X57.873 Y-4.13 E6.4732
G1 X58.056 Y-3.659 E6.49841
G1 X58.163 Y-3.165 E6.52363
G1 X58.199 Y-2.51 E6.55635
G1 X58.2 Y2.054 E6.78405
G1 X58.191 Y2.781 E6.82033
G1 X58.145 Y3.284 E6.84553
G1 X58.02 Y3.774 E6.87076
G1 X57.819 Y4.238 E6.89598
G1 X57.548 Y4.665 E6.92121
G1 X57.213 Y5.044 E6.94645
G1 X56.823 Y5.365 E6.97165
G1 X56.387 Y5.621 E6.99688
G1 X55.916 Y5.804 E7.02208
G1 X55.422 Y5.912 E7.04731
G1 X54.76 Y5.949 E7.08039
G1 X-54.334 Y5.95 E12.52311
G1 F1500 E6.02311
;MESH:100mm_Delta_Calibration_Rod.stl
G0 F3600 X-54.334 Y3.415
G0 X-54.334 Y2.13
G0 X-54 Y1.75
;TYPE:WALL-INNER
G1 F1500 E12.52311
G1 F1800 X-54 Y-1.75 E12.69773
G1 X54 Y-1.75 E18.08587
G1 X54 Y1.75 E18.26049
G1 X-54 Y1.75 E23.64863
G0 F3600 X-54.4 Y2.15
G1 F1800 X-54.4 Y-2.15 E23.86316
G1 X54.4 Y-2.15 E29.29121
G1 X54.4 Y2.15 E29.50574
G1 X-54.4 Y2.15 E34.93379
G0 F3600 X-54.8 Y2.55
;TYPE:WALL-OUTER
G1 F1800 X-54.8 Y-2.55 E35.18823
G1 X54.8 Y-2.55 E40.6562
G1 X54.8 Y2.55 E40.91064
G1 X-54.8 Y2.55 E46.3786
G0 F3600 X-54.8 Y2.35
G0 X-54.33 Y2.08
G0 X-53.61 Y1.36
;TYPE:SKIN
G1 F1800 X-53.61 Y-1.36 E46.51431
G1 X53.61 Y-1.36 E51.86353
G1 X53.61 Y1.36 E51.99924
G1 X-53.61 Y1.36 E57.34846
G0 F3600 X-53.429 Y0.876
G1 F1800 X-53.125 Y1.18 E57.36991
G0 F3600 X-52.559 Y1.18
G1 F1800 X-53.429 Y0.31 E57.43129
G0 F3600 X-53.429 Y-.255
G1 F1800 X-51.994 Y1.18 E57.53254
G0 F3600 X-51.428 Y1.18
G1 F1800 X-53.429 Y-.82 E57.67369
G0 F3600 X-53.223 Y-1.18
G1 F1800 X-50.862 Y1.18 E57.84023
G0 F3600 X-50.297 Y1.18
G1 F1800 X-52.657 Y-1.18 E58.00674
G0 F3600 X-52.091 Y-1.18
G1 F1800 X-49.731 Y1.18 E58.17326
G0 F3600 X-49.165 Y1.18
G1 F1800 X-51.526 Y-1.18 E58.3398
G0 F3600 X-50.96 Y-1.18
G1 F1800 X-48.6 Y1.18 E58.50631
G0 F3600 X-48.034 Y1.18
G1 F1800 X-50.394 Y-1.18 E58.67282
G0 F3600 X-49.829 Y-1.18
G1 F1800 X-47.468 Y1.18 E58.83937
G0 F3600 X-46.903 Y1.18
G1 F1800 X-49.263 Y-1.18 E59.00588
G0 F3600 X-48.697 Y-1.18
G1 F1800 X-46.337 Y1.18 E59.17239
G0 F3600 X-45.771 Y1.18
G1 F1800 X-48.132 Y-1.18 E59.33894
G0 F3600 X-47.566 Y-1.18
G1 F1800 X-45.206 Y1.18 E59.50545
G0 F3600 X-44.64 Y1.18
G1 F1800 X-47 Y-1.18 E59.67196
G0 F3600 X-46.434 Y-1.18
G1 F1800 X-44.074 Y1.18 E59.83847
G0 F3600 X-43.508 Y1.18
G1 F1800 X-45.869 Y-1.18 E60.00501
G0 F3600 X-45.303 Y-1.18
G1 F1800 X-42.943 Y1.18 E60.17153
G0 F3600 X-42.377 Y1.18
G1 F1800 X-44.737 Y-1.18 E60.33804
G0 F3600 X-44.172 Y-1.18
G1 F1800 X-41.811 Y1.18 E60.50458
G0 F3600 X-41.246 Y1.18
G1 F1800 X-43.606 Y-1.18 E60.67109
G0 F3600 X-43.04 Y-1.18
G1 F1800 X-40.68 Y1.18 E60.8376
G0 F3600 X-40.114 Y1.18
G1 F1800 X-42.475 Y-1.18 E61.00415
G0 F3600 X-41.909 Y-1.18
G1 F1800 X-39.549 Y1.18 E61.17066
G0 F3600 X-38.983 Y1.18
G1 F1800 X-41.343 Y-1.18 E61.33717
G0 F3600 X-40.778 Y-1.18
G1 F1800 X-38.417 Y1.18 E61.50372
G0 F3600 X-37.852 Y1.18
G1 F1800 X-40.212 Y-1.18 E61.67023
G0 F3600 X-39.646 Y-1.18
G1 F1800 X-37.286 Y1.18 E61.83674
G0 F3600 X-36.72 Y1.18
G1 F1800 X-39.081 Y-1.18 E62.00328
G0 F3600 X-38.515 Y-1.18
G1 F1800 X-36.155 Y1.18 E62.1698
G0 F3600 X-35.589 Y1.18
G1 F1800 X-37.949 Y-1.18 E62.33631
G0 F3600 X-37.384 Y-1.18
G1 F1800 X-35.023 Y1.18 E62.50285
G0 F3600 X-34.458 Y1.18
G1 F1800 X-36.818 Y-1.18 E62.66936
G0 F3600 X-36.252 Y-1.18
G1 F1800 X-33.892 Y1.18 E62.83587
G0 F3600 X-33.326 Y1.18
G1 F1800 X-35.686 Y-1.18 E63.00238
G0 F3600 X-35.121 Y-1.18
G1 F1800 X-32.76 Y1.18 E63.16893
G0 F3600 X-32.195 Y1.18
G1 F1800 X-34.555 Y-1.18 E63.33544
G0 F3600 X-33.989 Y-1.18
G1 F1800 X-31.629 Y1.18 E63.50195
G0 F3600 X-31.063 Y1.18
G1 F1800 X-33.424 Y-1.18 E63.6685
G0 F3600 X-32.858 Y-1.18
G1 F1800 X-30.498 Y1.18 E63.83501
G0 F3600 X-29.932 Y1.18
G1 F1800 X-32.292 Y-1.18 E64.00152
G0 F3600 X-31.727 Y-1.18
G1 F1800 X-29.366 Y1.18 E64.16807
G0 F3600 X-28.801 Y1.18
G1 F1800 X-31.161 Y-1.18 E64.33458
G0 F3600 X-30.595 Y-1.18
G1 F1800 X-28.235 Y1.18 E64.50109
G0 F3600 X-27.669 Y1.18
G1 F1800 X-30.03 Y-1.18 E64.66763
G0 F3600 X-29.464 Y-1.18
G1 F1800 X-27.104 Y1.18 E64.83414
G0 F3600 X-26.538 Y1.18
G1 F1800 X-28.898 Y-1.18 E65.00065
G0 F3600 X-28.333 Y-1.18
G1 F1800 X-25.972 Y1.18 E65.1672
G0 F3600 X-25.407 Y1.18
G1 F1800 X-27.767 Y-1.18 E65.33371
G0 F3600 X-27.201 Y-1.18
G1 F1800 X-24.841 Y1.18 E65.50022
G0 F3600 X-24.275 Y1.18
G1 F1800 X-26.636 Y-1.18 E65.66677
G0 F3600 X-26.07 Y-1.18
G1 F1800 X-23.709 Y1.18 E65.83331
G0 F3600 X-23.144 Y1.18
G1 F1800 X-25.504 Y-1.18 E65.99982
G0 F3600 X-24.938 Y-1.18
G1 F1800 X-22.578 Y1.18 E66.16634
G0 F3600 X-22.012 Y1.18
G1 F1800 X-24.373 Y-1.18 E66.33288
G0 F3600 X-23.807 Y-1.18
G1 F1800 X-21.447 Y1.18 E66.49939
G0 F3600 X-20.881 Y1.18
G1 F1800 X-23.241 Y-1.18 E66.6659
G0 F3600 X-22.676 Y-1.18
G1 F1800 X-20.315 Y1.18 E66.83245
G0 F3600 X-19.75 Y1.18
G1 F1800 X-22.11 Y-1.18 E66.99896
G0 F3600 X-21.544 Y-1.18
G1 F1800 X-19.184 Y1.18 E67.16547
G0 F3600 X-18.618 Y1.18
G1 F1800 X-20.979 Y-1.18 E67.33202
G0 F3600 X-20.413 Y-1.18
G1 F1800 X-18.053 Y1.18 E67.49853
G0 F3600 X-17.487 Y1.18
G1 F1800 X-19.847 Y-1.18 E67.66504
G0 F3600 X-19.282 Y-1.18
G1 F1800 X-16.921 Y1.18 E67.83158
G0 F3600 X-16.356 Y1.18
G1 F1800 X-18.716 Y-1.18 E67.99809
G0 F3600 X-18.15 Y-1.18
G1 F1800 X-15.79 Y1.18 E68.16461
G0 F3600 X-15.224 Y1.18
G1 F1800 X-17.585 Y-1.18 E68.33115
G0 F3600 X-17.019 Y-1.18
G1 F1800 X-14.659 Y1.18 E68.49766
G0 F3600 X-14.093 Y1.18
G1 F1800 X-16.453 Y-1.18 E68.66417
G0 F3600 X-15.887 Y-1.18
G1 F1800 X-13.527 Y1.18 E68.83068
G0 F3600 X-12.961 Y1.18
G1 F1800 X-15.322 Y-1.18 E68.99723
G0 F3600 X-14.756 Y-1.18
G1 F1800 X-12.396 Y1.18 E69.16374
G0 F3600 X-11.83 Y1.18
G1 F1800 X-14.19 Y-1.18 E69.33025
G0 F3600 X-13.625 Y-1.18
G1 F1800 X-11.264 Y1.18 E69.4968
G0 F3600 X-10.699 Y1.18
G1 F1800 X-13.059 Y-1.18 E69.66331
G0 F3600 X-12.493 Y-1.18
G1 F1800 X-10.133 Y1.18 E69.82982
G0 F3600 X-9.567 Y1.18
G1 F1800 X-11.928 Y-1.18 E69.99636
G0 F3600 X-11.362 Y-1.18
G1 F1800 X-9.002 Y1.18 E70.16288
G0 F3600 X-8.436 Y1.18
G1 F1800 X-10.796 Y-1.18 E70.32939
G0 F3600 X-10.231 Y-1.18
G1 F1800 X-7.87 Y1.18 E70.49593
G0 F3600 X-7.305 Y1.18
G1 F1800 X-9.665 Y-1.18 E70.66244
G0 F3600 X-9.099 Y-1.18
G1 F1800 X-6.739 Y1.18 E70.82895
G0 F3600 X-6.173 Y1.18
G1 F1800 X-8.534 Y-1.18 E70.9955
G0 F3600 X-7.968 Y-1.18
G1 F1800 X-5.608 Y1.18 E71.16201
G0 F3600 X-5.042 Y1.18
G1 F1800 X-7.402 Y-1.18 E71.32852
G0 F3600 X-6.837 Y-1.18
G1 F1800 X-4.476 Y1.18 E71.49507
G0 F3600 X-3.911 Y1.18
G1 F1800 X-6.271 Y-1.18 E71.66158
G0 F3600 X-5.705 Y-1.18
G1 F1800 X-3.345 Y1.18 E71.82809
G0 F3600 X-2.779 Y1.18
G1 F1800 X-5.139 Y-1.18 E71.9946
G0 F3600 X-4.574 Y-1.18
G1 F1800 X-2.213 Y1.18 E72.16115
G0 F3600 X-1.648 Y1.18
G1 F1800 X-4.008 Y-1.18 E72.32766
G0 F3600 X-3.442 Y-1.18
G1 F1800 X-1.082 Y1.18 E72.49417
G0 F3600 X-.516 Y1.18
G1 F1800 X-2.877 Y-1.18 E72.66071
G0 F3600 X-2.311 Y-1.18
G1 F1800 X0.048 Y1.18 E72.82719
G0 F3600 X0.614 Y1.18
G1 F1800 X-1.745 Y-1.18 E72.99366
G0 F3600 X-1.18 Y-1.18
G1 F1800 X1.18 Y1.18 E73.16017
G0 F3600 X1.745 Y1.18
G1 F1800 X-.614 Y-1.18 E73.32665
G0 F3600 X-0.048 Y-1.18
G1 F1800 X2.311 Y1.18 E73.49313
G0 F3600 X2.877 Y1.18
G1 F1800 X0.516 Y-1.18 E73.65967
G0 F3600 X1.082 Y-1.18
G1 F1800 X3.442 Y1.18 E73.82618
G0 F3600 X4.008 Y1.18
G1 F1800 X1.648 Y-1.18 E73.99269
G0 F3600 X2.213 Y-1.18
G1 F1800 X4.574 Y1.18 E74.15924
G0 F3600 X5.139 Y1.18
G1 F1800 X2.779 Y-1.18 E74.32575
G0 F3600 X3.345 Y-1.18
G1 F1800 X5.705 Y1.18 E74.49226
G0 F3600 X6.271 Y1.18
G1 F1800 X3.911 Y-1.18 E74.65877
G0 F3600 X4.476 Y-1.18
G1 F1800 X6.837 Y1.18 E74.82532
G0 F3600 X7.402 Y1.18
G1 F1800 X5.042 Y-1.18 E74.99183
G0 F3600 X5.608 Y-1.18
G1 F1800 X7.968 Y1.18 E75.15834
G0 F3600 X8.534 Y1.18
G1 F1800 X6.173 Y-1.18 E75.32489
G0 F3600 X6.739 Y-1.18
G1 F1800 X9.099 Y1.18 E75.4914
G0 F3600 X9.665 Y1.18
G1 F1800 X7.305 Y-1.18 E75.65791
G0 F3600 X7.87 Y-1.18
G1 F1800 X10.231 Y1.18 E75.82445
G0 F3600 X10.796 Y1.18
G1 F1800 X8.436 Y-1.18 E75.99096
G0 F3600 X9.002 Y-1.18
G1 F1800 X11.362 Y1.18 E76.15747
G0 F3600 X11.928 Y1.18
G1 F1800 X9.567 Y-1.18 E76.32402
G0 F3600 X10.133 Y-1.18
G1 F1800 X12.493 Y1.18 E76.49053
G0 F3600 X13.059 Y1.18
G1 F1800 X10.699 Y-1.18 E76.65704
G0 F3600 X11.264 Y-1.18
G1 F1800 X13.625 Y1.18 E76.82359
G0 F3600 X14.19 Y1.18
G1 F1800 X11.83 Y-1.18 E76.9901
G0 F3600 X12.396 Y-1.18
G1 F1800 X14.756 Y1.18 E77.15661
G0 F3600 X15.322 Y1.18
G1 F1800 X12.961 Y-1.18 E77.32316
G0 F3600 X13.527 Y-1.18
G1 F1800 X15.887 Y1.18 E77.48967
G0 F3600 X16.453 Y1.18
G1 F1800 X14.093 Y-1.18 E77.65618
G0 F3600 X14.659 Y-1.18
G1 F1800 X17.019 Y1.18 E77.82269
G0 F3600 X17.585 Y1.18
G1 F1800 X15.224 Y-1.18 E77.98923
G0 F3600 X15.79 Y-1.18
G1 F1800 X18.15 Y1.18 E78.15574
G0 F3600 X18.716 Y1.18
G1 F1800 X16.356 Y-1.18 E78.32226
G0 F3600 X16.921 Y-1.18
G1 F1800 X19.282 Y1.18 E78.4888
G0 F3600 X19.847 Y1.18
G1 F1800 X17.487 Y-1.18 E78.65531
G0 F3600 X18.053 Y-1.18
G1 F1800 X20.413 Y1.18 E78.82182
G0 F3600 X20.979 Y1.18
G1 F1800 X18.618 Y-1.18 E78.98837
G0 F3600 X19.184 Y-1.18
G1 F1800 X21.544 Y1.18 E79.15488
G0 F3600 X22.11 Y1.18
G1 F1800 X19.75 Y-1.18 E79.32139
G0 F3600 X20.315 Y-1.18
G1 F1800 X22.676 Y1.18 E79.48794
G0 F3600 X23.241 Y1.18
G1 F1800 X20.881 Y-1.18 E79.65445
G0 F3600 X21.447 Y-1.18
G1 F1800 X23.807 Y1.18 E79.82096
G0 F3600 X24.373 Y1.18
G1 F1800 X22.012 Y-1.18 E79.9875
G0 F3600 X22.578 Y-1.18
G1 F1800 X24.938 Y1.18 E80.15401
G0 F3600 X25.504 Y1.18
G1 F1800 X23.144 Y-1.18 E80.32053
G0 F3600 X23.709 Y-1.18
G1 F1800 X26.07 Y1.18 E80.48707
G0 F3600 X26.636 Y1.18
G1 F1800 X24.275 Y-1.18 E80.65362
G0 F3600 X24.841 Y-1.18
G1 F1800 X27.201 Y1.18 E80.82013
G0 F3600 X27.767 Y1.18
G1 F1800 X25.407 Y-1.18 E80.98664
G0 F3600 X25.972 Y-1.18
G1 F1800 X28.333 Y1.18 E81.15318
G0 F3600 X28.898 Y1.18
G1 F1800 X26.538 Y-1.18 E81.3197
G0 F3600 X27.104 Y-1.18
G1 F1800 X29.464 Y1.18 E81.48621
G0 F3600 X30.03 Y1.18
G1 F1800 X27.669 Y-1.18 E81.65275
G0 F3600 X28.235 Y-1.18
G1 F1800 X30.595 Y1.18 E81.81926
G0 F3600 X31.161 Y1.18
G1 F1800 X28.801 Y-1.18 E81.98577
G0 F3600 X29.366 Y-1.18
G1 F1800 X31.727 Y1.18 E82.15232
G0 F3600 X32.292 Y1.18
G1 F1800 X29.932 Y-1.18 E82.31883
G0 F3600 X30.498 Y-1.18
G1 F1800 X32.858 Y1.18 E82.48534
G0 F3600 X33.424 Y1.18
G1 F1800 X31.063 Y-1.18 E82.65189
G0 F3600 X31.629 Y-1.18
G1 F1800 X33.989 Y1.18 E82.8184
G0 F3600 X34.555 Y1.18
G1 F1800 X32.195 Y-1.18 E82.98491
G0 F3600 X32.76 Y-1.18
G1 F1800 X35.121 Y1.18 E83.15145
G0 F3600 X35.686 Y1.18
G1 F1800 X33.326 Y-1.18 E83.31797
G0 F3600 X33.892 Y-1.18
G1 F1800 X36.252 Y1.18 E83.48448
G0 F3600 X36.818 Y1.18
G1 F1800 X34.458 Y-1.18 E83.65099
G0 F3600 X35.023 Y-1.18
G1 F1800 X37.384 Y1.18 E83.81753
G0 F3600 X37.949 Y1.18
G1 F1800 X35.589 Y-1.18 E83.98404
G0 F3600 X36.155 Y-1.18
G1 F1800 X38.515 Y1.18 E84.15055
G0 F3600 X39.081 Y1.18
G1 F1800 X36.72 Y-1.18 E84.3171
G0 F3600 X37.286 Y-1.18
G1 F1800 X39.646 Y1.18 E84.48361
G0 F3600 X40.212 Y1.18
G1 F1800 X37.852 Y-1.18 E84.65012
G0 F3600 X38.417 Y-1.18
G1 F1800 X40.778 Y1.18 E84.81667
G0 F3600 X41.343 Y1.18
G1 F1800 X38.983 Y-1.18 E84.98318
G0 F3600 X39.549 Y-1.18
G1 F1800 X41.909 Y1.18 E85.14969
G0 F3600 X42.475 Y1.18
G1 F1800 X40.114 Y-1.18 E85.31624
G0 F3600 X40.68 Y-1.18
G1 F1800 X43.04 Y1.18 E85.48275
G0 F3600 X43.606 Y1.18
G1 F1800 X41.246 Y-1.18 E85.64926
G0 F3600 X41.811 Y-1.18
G1 F1800 X44.172 Y1.18 E85.8158
G0 F3600 X44.737 Y1.18
G1 F1800 X42.377 Y-1.18 E85.98231
G0 F3600 X42.943 Y-1.18
G1 F1800 X45.303 Y1.18 E86.14882
G0 F3600 X45.869 Y1.18
G1 F1800 X43.508 Y-1.18 E86.31537
G0 F3600 X44.074 Y-1.18
G1 F1800 X46.434 Y1.18 E86.48188
G0 F3600 X47 Y1.18
G1 F1800 X44.64 Y-1.18 E86.64839
G0 F3600 X45.206 Y-1.18
G1 F1800 X47.566 Y1.18 E86.8149
G0 F3600 X48.132 Y1.18
G1 F1800 X45.771 Y-1.18 E86.98145
G0 F3600 X46.337 Y-1.18
G1 F1800 X48.697 Y1.18 E87.14796
G0 F3600 X49.263 Y1.18
G1 F1800 X46.903 Y-1.18 E87.31447
G0 F3600 X47.468 Y-1.18
G1 F1800 X49.829 Y1.18 E87.48102
G0 F3600 X50.394 Y1.18
G1 F1800 X48.034 Y-1.18 E87.64753
G0 F3600 X48.6 Y-1.18
G1 F1800 X50.96 Y1.18 E87.81404
G0 F3600 X51.526 Y1.18
G1 F1800 X49.165 Y-1.18 E87.98058
G0 F3600 X49.731 Y-1.18
G1 F1800 X52.091 Y1.18 E88.14709
G0 F3600 X52.657 Y1.18
G1 F1800 X50.297 Y-1.18 E88.31361
G0 F3600 X50.862 Y-1.18
G1 F1800 X53.223 Y1.18 E88.48015
G0 F3600 X53.429 Y0.82
G1 F1800 X51.428 Y-1.18 E88.6213
G0 F3600 X51.994 Y-1.18
G1 F1800 X53.429 Y0.255 E88.72254
G0 F3600 X53.429 Y-.31
G1 F1800 X52.559 Y-1.18 E88.78393
G0 F3600 X53.125 Y-1.18
G1 F1800 X53.429 Y-.876 E88.80538
;MESH:NONMESH
G0 F600 X53.429 Y-.876 Z0.6
G0 F3600 X-54 Y1.75
;TIME_ELAPSED:68.292918
;LAYER:1
M140 S60
M106 S255
;TYPE:WALL-INNER
;MESH:100mm_Delta_Calibration_Rod.stl
G1 F2700 X-54 Y-1.75 E88.97999
G1 X54 Y-1.75 E94.36813
G1 X54 Y1.75 E94.54275
G1 X-54 Y1.75 E99.93089
G0 F5400 X-54.4 Y2.15
G1 F2700 X-54.4 Y-2.15 E100.14542
G1 X54.4 Y-2.15 E105.57347
G1 X54.4 Y2.15 E105.788
G1 X-54.4 Y2.15 E111.21606
G0 F5400 X-54.8 Y2.55
;TYPE:WALL-OUTER
G1 F1800 X-54.8 Y-2.55 E111.4705
G1 X54.8 Y-2.55 E116.93846
G1 X54.8 Y2.55 E117.1929
G1 X-54.8 Y2.55 E122.66087
G0 F5400 X-54.8 Y2.35
G0 X-54.33 Y2.08
G0 X-53.61 Y1.36
;TYPE:SKIN
G1 F1800 X-53.61 Y-1.36 E122.79657
G1 X53.61 Y-1.36 E128.1458
G1 X53.61 Y1.36 E128.2815
G1 X-53.61 Y1.36 E133.63073
G0 F5400 X-53.429 Y-.876
G1 F1800 X-53.125 Y-1.18 E133.65217
G0 F5400 X-52.559 Y-1.18
G1 F1800 X-53.429 Y-.31 E133.71356
G0 F5400 X-53.429 Y0.255
G1 F1800 X-51.994 Y-1.18 E133.8148
G0 F5400 X-51.428 Y-1.18
G1 F1800 X-53.429 Y0.82 E133.95595
G0 F5400 X-53.223 Y1.18
G1 F1800 X-50.862 Y-1.18 E134.1225
G0 F5400 X-50.297 Y-1.18
G1 F1800 X-52.657 Y1.18 E134.28901
G0 F5400 X-52.091 Y1.18
G1 F1800 X-49.731 Y-1.18 E134.45552
G0 F5400 X-49.165 Y-1.18
G1 F1800 X-51.526 Y1.18 E134.62206
G0 F5400 X-50.96 Y1.18
G1 F1800 X-48.6 Y-1.18 E134.78858
G0 F5400 X-48.034 Y-1.18
G1 F1800 X-50.394 Y1.18 E134.95509
G0 F5400 X-49.829 Y1.18
G1 F1800 X-47.468 Y-1.18 E135.12163
G0 F5400 X-46.903 Y-1.18
G1 F1800 X-49.263 Y1.18 E135.28814
G0 F5400 X-48.697 Y1.18
G1 F1800 X-46.337 Y-1.18 E135.45465
G0 F5400 X-45.771 Y-1.18
G1 F1800 X-48.132 Y1.18 E135.6212
G0 F5400 X-47.566 Y1.18
G1 F1800 X-45.206 Y-1.18 E135.78771
